image/logo_container.svg

<svg width="175" height="44" viewBox="0 0 175 44" fill="none" xmlns="http://www.w3.org/2000/svg">
<path fill-rule="evenodd" clip-rule="evenodd" d="M36.8102 41.4655C36.403 41.4908 35.9925 41.5037 35.579 41.5037H22.8788C12.1072 41.5037 3.375 32.7716 3.375 21.9999C3.375 11.2283 12.1071 2.49609 22.8788 2.49609H35.579C46.3506 2.49609 55.0828 11.2282 55.0828 21.9999C55.0828 31.6904 48.0156 39.7302 38.7542 41.2466V41.5037H37.7336C37.4226 41.5037 37.1146 41.4908 36.8102 41.4655ZM22.8788 7.48544C14.8627 7.48544 8.36435 13.9838 8.36435 21.9999C8.36435 28.6936 12.8955 34.329 19.0578 36.0062C16.9109 33.4005 15.6216 30.062 15.6216 26.4223C15.6216 18.093 22.3738 11.3408 30.703 11.3408H45.4306C42.8428 8.9478 39.3816 7.48544 35.579 7.48544H22.8788ZM28.3447 36.2373C27.3231 34.5679 26.7344 32.6049 26.7344 30.5045C26.7344 24.4297 31.6589 19.5052 37.7336 19.5052H49.8799C49.6882 18.3989 49.3713 17.3355 48.9443 16.3302H30.703C25.1293 16.3302 20.6109 20.8485 20.6109 26.4223C20.6109 31.1839 23.9086 35.1753 28.3447 36.2373ZM36.8915 36.4558C33.971 36.0463 31.7237 33.5378 31.7237 30.5045C31.7237 27.1853 34.4144 24.4946 37.7336 24.4946H49.8799C48.7702 30.9004 43.4613 35.867 36.8915 36.4558Z" fill="#0554F2"/>
<path d="M71.6597 14.9609C71.6597 16.0004 71.4495 16.9099 71.029 17.6895C70.6132 18.4644 70.0249 19.0668 69.2643 19.4967C68.5083 19.9267 67.62 20.1416 66.5995 20.1416C65.5553 20.1416 64.6576 19.9338 63.9064 19.518C63.1551 19.0975 62.5787 18.4998 62.1771 17.7249C61.7755 16.9501 61.5747 16.0287 61.5747 14.9609C61.5747 13.8932 61.7731 12.9789 62.17 12.2182C62.5716 11.4575 63.1481 10.8764 63.8993 10.4748C64.6553 10.0685 65.56 9.8653 66.6137 9.8653C67.672 9.8653 68.5768 10.0708 69.328 10.4819C70.0793 10.8882 70.6557 11.4717 71.0573 12.2324C71.4589 12.9931 71.6597 13.9026 71.6597 14.9609ZM69.5265 14.9609C69.5265 13.8837 69.2713 13.0403 68.7611 12.4308C68.2508 11.8166 67.535 11.5095 66.6137 11.5095C65.6782 11.5095 64.9553 11.8143 64.445 12.4238C63.9347 13.0285 63.6796 13.8743 63.6796 14.9609C63.6796 15.6886 63.7977 16.317 64.0339 16.8461C64.2702 17.3753 64.6056 17.784 65.0403 18.0722C65.4797 18.3557 65.9994 18.4974 66.5995 18.4974C67.535 18.4974 68.2555 18.1903 68.7611 17.5761C69.2713 16.9619 69.5265 16.0902 69.5265 14.9609Z" fill="#1A2873"/>
<path d="M81.8241 13.175C81.8241 13.8223 81.6753 14.3963 81.3776 14.8972C81.0847 15.3933 80.6665 15.7831 80.1232 16.0665C79.5798 16.3453 78.9325 16.4847 78.1813 16.4847H75.7008V19.9999H73.6101V10.0141H78.0962C79.2916 10.0141 80.2106 10.2905 80.8531 10.8433C81.5004 11.3914 81.8241 12.1686 81.8241 13.175ZM79.7192 13.2104C79.7192 12.1615 79.1003 11.6371 77.8624 11.6371H75.7008V14.8759H77.9191C78.4955 14.8759 78.9396 14.7342 79.2515 14.4507C79.5633 14.1625 79.7192 13.749 79.7192 13.2104Z" fill="#1A2873"/>
<path d="M96.2974 10.0141V19.9999H83.654V10.0141H85.6738V18.2706H88.9622V10.0141H90.9821V18.2706H94.2776V10.0141H96.2974Z" fill="#1A2873"/>
<path d="M100.969 17.4485L100.083 19.9999H97.9927L101.635 10.0141H104.102L107.73 19.9999H105.661L104.775 17.4485H100.969ZM102.869 11.552C102.821 11.741 102.755 11.9678 102.67 12.2324C102.585 12.497 102.524 12.6836 102.486 12.7923L101.437 15.8752H104.307L103.23 12.7285C103.164 12.5348 103.103 12.3387 103.046 12.1403C102.989 11.9418 102.93 11.7457 102.869 11.552Z" fill="#1A2873"/>
<path d="M66.6137 33.4974C67.8799 33.4974 68.7563 32.8643 69.243 31.5981L71.0644 32.2855C70.6722 33.2494 70.0958 33.9675 69.3351 34.44C68.5792 34.9078 67.672 35.1416 66.6137 35.1416C65.5459 35.1416 64.6364 34.9385 63.8851 34.5322C63.1339 34.1211 62.5598 33.5281 62.1629 32.7533C61.7708 31.9784 61.5747 31.0476 61.5747 29.9609C61.5747 28.8648 61.7637 27.9388 62.1417 27.1828C62.5197 26.4268 63.0772 25.8528 63.8142 25.4606C64.5513 25.0637 65.4537 24.8653 66.5215 24.8653C67.6933 24.8653 68.6477 25.1015 69.3847 25.574C70.1218 26.0418 70.6392 26.7316 70.9368 27.6435L69.0942 28.1466C68.9382 27.6458 68.6311 27.2489 68.1728 26.956C67.7193 26.6583 67.183 26.5095 66.5641 26.5095C65.6191 26.5095 64.9009 26.8024 64.4096 27.3883C63.9229 27.9742 63.6796 28.8317 63.6796 29.9609C63.6796 30.7264 63.7906 31.3713 64.0127 31.8957C64.2395 32.4202 64.5702 32.8194 65.0049 33.0935C65.4443 33.3628 65.9805 33.4974 66.6137 33.4974Z" fill="#1A2873"/>
<path d="M76.9552 26.63V34.9999H74.8645V26.63H71.6399V25.0141H80.187V26.63H76.9552Z" fill="#1A2873"/>
<path d="M83.1295 32.4485L82.2436 34.9999H80.1529L83.7957 25.0141H86.262L89.8907 34.9999H87.8212L86.9353 32.4485H83.1295ZM85.0289 26.552C84.9816 26.741 84.9155 26.9678 84.8304 27.2324C84.7454 27.497 84.684 27.6836 84.6462 27.7923L83.5973 30.8752H86.4676L85.3903 27.7285C85.3242 27.5348 85.2628 27.3387 85.2061 27.1403C85.1494 26.9418 85.0903 26.7457 85.0289 26.552Z" fill="#1A2873"/>
<path d="M94.0522 33.0155C93.8113 33.7715 93.5065 34.3101 93.138 34.6314C92.7695 34.9527 92.2521 35.1133 91.5859 35.1133C91.2646 35.1133 91.0308 35.0731 90.8843 34.9928V33.2423C90.9457 33.2754 91.0473 33.2919 91.189 33.2919C91.326 33.2919 91.4489 33.2517 91.5576 33.1714C91.6662 33.0864 91.7655 32.9612 91.8552 32.7958C91.9355 32.6446 92.0111 32.4556 92.082 32.2288C92.1576 31.9973 92.2308 31.7233 92.3017 31.4067C92.3442 31.213 92.3891 30.9839 92.4364 30.7193C92.4836 30.4547 92.5427 30.098 92.6135 29.6491C92.6891 29.1955 92.7813 28.5979 92.8899 27.8561C92.9986 27.1143 93.1333 26.167 93.2939 25.0141H100.041V34.9999H98.0281V26.7434H95.1437L94.7964 29.2097C94.5412 30.9768 94.2932 32.2454 94.0522 33.0155Z" fill="#1A2873"/>
<path d="M111.297 31.9453C111.297 32.5454 111.148 33.0769 110.85 33.54C110.553 33.9983 110.127 34.3573 109.574 34.6172C109.022 34.8723 108.365 34.9999 107.604 34.9999H102.353V25.0141H104.443V28.99H107.831C108.941 28.99 109.797 29.2499 110.397 29.7696C110.997 30.2846 111.297 31.0098 111.297 31.9453ZM109.185 31.9737C109.185 31.5343 109.019 31.1965 108.689 30.9602C108.363 30.7193 107.874 30.5988 107.222 30.5988H104.443V33.3699H107.264C108.544 33.3699 109.185 32.9045 109.185 31.9737Z" fill="#1A2873"/>
<path d="M117.443 33.4974C118.709 33.4974 119.585 32.8643 120.072 31.5981L121.893 32.2855C121.501 33.2494 120.925 33.9675 120.164 34.44C119.408 34.9078 118.501 35.1416 117.443 35.1416C116.375 35.1416 115.465 34.9385 114.714 34.5322C113.963 34.1211 113.389 33.5281 112.992 32.7533C112.6 31.9784 112.404 31.0476 112.404 29.9609C112.404 28.8648 112.593 27.9388 112.971 27.1828C113.349 26.4268 113.906 25.8528 114.643 25.4606C115.38 25.0637 116.283 24.8653 117.35 24.8653C118.522 24.8653 119.477 25.1015 120.214 25.574C120.951 26.0418 121.468 26.7316 121.766 27.6435L119.923 28.1466C119.767 27.6458 119.46 27.2489 119.002 26.956C118.548 26.6583 118.012 26.5095 117.393 26.5095C116.448 26.5095 115.73 26.8024 115.239 27.3883C114.752 27.9742 114.509 28.8317 114.509 29.9609C114.509 30.7264 114.62 31.3713 114.842 31.8957C115.068 32.4202 115.399 32.8194 115.834 33.0935C116.273 33.3628 116.81 33.4974 117.443 33.4974Z" fill="#1A2873"/>
<path d="M131.774 33.384V34.9999H123.631V25.0141H131.484V26.63H125.722V29.1388H131.051V30.7547H125.722V33.384H131.774Z" fill="#1A2873"/>
<path d="M141.889 28.175C141.889 28.8223 141.74 29.3963 141.443 29.8972C141.15 30.3933 140.731 30.7831 140.188 31.0665C139.645 31.3453 138.997 31.4847 138.246 31.4847H135.766V34.9999H133.675V25.0141H138.161C139.357 25.0141 140.276 25.2905 140.918 25.8433C141.565 26.3914 141.889 27.1686 141.889 28.175ZM139.784 28.2104C139.784 27.1615 139.165 26.6371 137.927 26.6371H135.766V29.8759H137.984C138.56 29.8759 139.005 29.7342 139.316 29.4507C139.628 29.1625 139.784 28.749 139.784 28.2104Z" fill="#1A2873"/>
<path d="M152.571 32.1509C152.571 33.058 152.231 33.7597 151.55 34.2558C150.87 34.7519 149.925 34.9999 148.715 34.9999H143.719V25.0141H148.29C149.509 25.0141 150.43 25.2267 151.054 25.652C151.682 26.0725 151.997 26.6961 151.997 27.523C151.997 28.0899 151.838 28.5695 151.522 28.9617C151.21 29.3491 150.733 29.6113 150.09 29.7483C150.898 29.8428 151.512 30.098 151.933 30.5137C152.358 30.9248 152.571 31.4705 152.571 32.1509ZM149.892 27.8065C149.892 27.3576 149.748 27.0387 149.459 26.8497C149.176 26.6607 148.753 26.5662 148.191 26.5662H145.81V29.0396H148.205C148.796 29.0396 149.223 28.938 149.488 28.7349C149.757 28.527 149.892 28.2175 149.892 27.8065ZM150.473 31.9879C150.473 31.0524 149.802 30.5846 148.46 30.5846H145.81V33.4478H148.538C149.209 33.4478 149.698 33.3273 150.005 33.0864C150.317 32.8407 150.473 32.4745 150.473 31.9879Z" fill="#1A2873"/>
<path d="M161.261 27.3104L156.945 34.9999H154.564V25.0141H156.42V30.8185C156.42 31.0689 156.416 31.3571 156.406 31.6831C156.397 32.0091 156.383 32.3706 156.364 32.7675L160.708 25.0141H163.061V34.9999H161.204V29.1105C161.204 28.9262 161.209 28.6853 161.218 28.3876C161.228 28.0852 161.242 27.7261 161.261 27.3104Z" fill="#1A2873"/>
<path d="M170.029 33.4974C171.295 33.4974 172.172 32.8643 172.659 31.5981L174.48 32.2855C174.088 33.2494 173.511 33.9675 172.751 34.44C171.995 34.9078 171.088 35.1416 170.029 35.1416C168.961 35.1416 168.052 34.9385 167.301 34.5322C166.549 34.1211 165.975 33.5281 165.578 32.7533C165.186 31.9784 164.99 31.0476 164.99 29.9609C164.99 28.8648 165.179 27.9388 165.557 27.1828C165.935 26.4268 166.493 25.8528 167.23 25.4606C167.967 25.0637 168.869 24.8653 169.937 24.8653C171.109 24.8653 172.063 25.1015 172.8 25.574C173.537 26.0418 174.055 26.7316 174.352 27.6435L172.51 28.1466C172.354 27.6458 172.047 27.2489 171.588 26.956C171.135 26.6583 170.599 26.5095 169.98 26.5095C169.035 26.5095 168.316 26.8024 167.825 27.3883C167.338 27.9742 167.095 28.8317 167.095 29.9609C167.095 30.7264 167.206 31.3713 167.428 31.8957C167.655 32.4202 167.986 32.8194 168.42 33.0935C168.86 33.3628 169.396 33.4974 170.029 33.4974Z" fill="#1A2873"/>
</svg>

<svg width="175" height="44" fill="none" xmlns="http://www.w3.org/2000/svg"><path fill-rule="evenodd" clip-rule="evenodd" d="M36.81 41.465c-.407.026-.818.039-1.231.039h-12.7C12.107 41.504 3.375 32.772 3.375 22c0-10.772 8.732-19.504 19.504-19.504h12.7c10.772 0 19.504 8.732 19.504 19.504 0 9.69-7.067 17.73-16.329 19.247v.257h-1.02c-.311 0-.62-.013-.924-.038ZM22.88 7.486C14.863 7.485 8.364 13.984 8.364 22c0 6.694 4.531 12.329 10.694 14.006a15.02 15.02 0 0 1-3.436-9.584c0-8.329 6.752-15.081 15.081-15.081h14.728a14.463 14.463 0 0 0-9.852-3.856h-12.7Zm5.466 28.752a10.947 10.947 0 0 1-1.61-5.733c0-6.074 4.924-10.999 10.999-10.999H49.88a14.41 14.41 0 0 0-.936-3.175H30.703c-5.574 0-10.092 4.519-10.092 10.092 0 4.762 3.298 8.753 7.734 9.815Zm8.547.219a6.011 6.011 0 0 1 .842-11.961H49.88C48.77 30.9 43.46 35.867 36.89 36.455Z" fill="#0554F2"/><path d="M71.66 14.96c0 1.04-.21 1.95-.631 2.73a4.452 4.452 0 0 1-1.765 1.807c-.756.43-1.644.645-2.664.645-1.045 0-1.942-.208-2.694-.624a4.25 4.25 0 0 1-1.729-1.793c-.401-.775-.602-1.696-.602-2.764 0-1.068.198-1.982.595-2.743a4.105 4.105 0 0 1 1.73-1.743c.755-.406 1.66-.61 2.714-.61 1.058 0 1.963.206 2.714.617.751.406 1.328.99 1.73 1.75.4.761.602 1.67.602 2.729Zm-2.133 0c0-1.076-.256-1.92-.766-2.53-.51-.613-1.226-.92-2.147-.92-.936 0-1.659.304-2.169.914-.51.604-.765 1.45-.765 2.537 0 .728.118 1.356.354 1.885.236.53.572.938 1.006 1.226.44.284.96.425 1.56.425.935 0 1.656-.307 2.161-.92.51-.615.766-1.487.766-2.616ZM81.824 13.175c0 .647-.149 1.221-.446 1.722a3.064 3.064 0 0 1-1.255 1.17c-.543.278-1.19.418-1.942.418h-2.48V20h-2.09v-9.986h4.485c1.196 0 2.115.277 2.757.83.647.547.971 1.325.971 2.331Zm-2.105.035c0-1.049-.619-1.573-1.857-1.573h-2.161v3.239h2.218c.577 0 1.02-.142 1.332-.425.312-.289.468-.702.468-1.24ZM96.297 10.014V20H83.654v-9.986h2.02v8.257h3.288v-8.257h2.02v8.257h3.296v-8.257h2.02ZM100.969 17.448 100.083 20h-2.09l3.642-9.986h2.467L107.73 20h-2.069l-.886-2.552h-3.806Zm1.9-5.896c-.048.189-.114.416-.199.68-.085.265-.146.452-.184.56l-1.049 3.083h2.87l-1.077-3.146c-.066-.194-.127-.39-.184-.589a24.133 24.133 0 0 0-.177-.588ZM66.614 33.497c1.266 0 2.142-.633 2.629-1.899l1.821.688c-.392.963-.968 1.681-1.729 2.154-.756.468-1.663.702-2.721.702-1.068 0-1.978-.204-2.729-.61a4.121 4.121 0 0 1-1.722-1.779c-.392-.775-.588-1.705-.588-2.792 0-1.096.189-2.022.567-2.778a3.855 3.855 0 0 1 1.672-1.722c.737-.397 1.64-.596 2.708-.596 1.171 0 2.126.237 2.863.709.737.468 1.254 1.158 1.552 2.07l-1.843.503a2.13 2.13 0 0 0-.921-1.191c-.454-.298-.99-.447-1.609-.447-.945 0-1.663.293-2.154.88-.487.585-.73 1.443-.73 2.572 0 .765.11 1.41.333 1.935.227.524.557.923.992 1.197.44.27.976.404 1.609.404ZM76.955 26.63V35h-2.09v-8.37H71.64v-1.616h8.547v1.616h-3.232ZM83.13 32.449l-.886 2.55h-2.091l3.643-9.985h2.466L89.891 35h-2.07l-.886-2.551H83.13Zm1.899-5.897c-.047.189-.114.416-.199.68-.085.265-.146.452-.184.56l-1.049 3.083h2.87L85.39 27.73c-.066-.194-.127-.39-.184-.589a21.384 21.384 0 0 0-.177-.588ZM94.052 33.016c-.24.756-.546 1.294-.914 1.615-.369.322-.886.482-1.552.482-.321 0-.555-.04-.702-.12v-1.75c.062.032.163.049.305.049.137 0 .26-.04.369-.12.108-.086.207-.21.297-.376.08-.151.156-.34.227-.567.076-.232.149-.506.22-.822.042-.194.087-.423.134-.688.048-.264.107-.621.177-1.07.076-.454.168-1.051.277-1.793.109-.742.243-1.689.404-2.842h6.747V35h-2.013v-8.257h-2.884l-.348 2.467c-.255 1.767-.503 3.035-.744 3.806ZM111.297 31.945c0 .6-.149 1.132-.447 1.595-.297.458-.723.817-1.276 1.077-.552.255-1.209.383-1.97.383h-5.251v-9.986h2.09v3.976h3.388c1.11 0 1.966.26 2.566.78.6.515.9 1.24.9 2.175Zm-2.112.029c0-.44-.166-.777-.496-1.014-.326-.24-.815-.361-1.467-.361h-2.779v2.77h2.821c1.28 0 1.921-.465 1.921-1.395ZM117.443 33.497c1.266 0 2.142-.633 2.629-1.899l1.821.688c-.392.963-.968 1.681-1.729 2.154-.756.468-1.663.702-2.721.702-1.068 0-1.978-.204-2.729-.61a4.123 4.123 0 0 1-1.722-1.779c-.392-.775-.588-1.705-.588-2.792 0-1.096.189-2.022.567-2.778a3.854 3.854 0 0 1 1.672-1.722c.737-.397 1.64-.596 2.707-.596 1.172 0 2.127.237 2.864.709.737.468 1.254 1.158 1.552 2.07l-1.843.503a2.132 2.132 0 0 0-.921-1.191c-.454-.298-.99-.447-1.609-.447-.945 0-1.663.293-2.154.88-.487.585-.73 1.443-.73 2.572 0 .765.111 1.41.333 1.935.226.524.557.923.992 1.197.439.27.976.404 1.609.404ZM131.774 33.384V35h-8.143v-9.986h7.853v1.616h-5.762v2.509h5.329v1.616h-5.329v2.629h6.052ZM141.889 28.175c0 .647-.149 1.221-.446 1.722a3.068 3.068 0 0 1-1.255 1.17c-.543.278-1.191.418-1.942.418h-2.48V35h-2.091v-9.986h4.486c1.196 0 2.115.277 2.757.83.647.547.971 1.325.971 2.331Zm-2.105.035c0-1.049-.619-1.573-1.857-1.573h-2.161v3.239h2.218c.576 0 1.021-.142 1.332-.425.312-.288.468-.702.468-1.24ZM152.571 32.15c0 .908-.34 1.61-1.021 2.106-.68.496-1.625.744-2.835.744h-4.996v-9.986h4.571c1.219 0 2.14.213 2.764.638.628.42.943 1.044.943 1.871 0 .567-.159 1.047-.475 1.439-.312.387-.789.65-1.432.786.808.095 1.422.35 1.843.766.425.41.638.957.638 1.637Zm-2.679-4.343c0-.45-.144-.768-.433-.957-.283-.19-.706-.284-1.268-.284h-2.381v2.474h2.395c.591 0 1.018-.102 1.283-.305.269-.208.404-.517.404-.928Zm.581 4.18c0-.935-.671-1.402-2.013-1.402h-2.65v2.863h2.728c.671 0 1.16-.12 1.467-.362.312-.245.468-.611.468-1.098ZM161.261 27.31 156.945 35h-2.381v-9.986h1.856v5.805c0 .25-.004.538-.014.864-.009.326-.023.688-.042 1.084l4.344-7.753h2.353V35h-1.857v-5.89c0-.184.005-.425.014-.722.01-.303.024-.662.043-1.078ZM170.029 33.497c1.266 0 2.143-.633 2.63-1.899l1.821.688c-.392.963-.969 1.681-1.729 2.154-.756.468-1.663.702-2.722.702-1.068 0-1.977-.204-2.728-.61a4.12 4.12 0 0 1-1.723-1.779c-.392-.775-.588-1.705-.588-2.792 0-1.096.189-2.022.567-2.778a3.856 3.856 0 0 1 1.673-1.722c.737-.397 1.639-.596 2.707-.596 1.172 0 2.126.237 2.863.709.737.468 1.255 1.158 1.552 2.07l-1.842.503a2.129 2.129 0 0 0-.922-1.191c-.453-.298-.989-.447-1.608-.447-.945 0-1.664.293-2.155.88-.487.585-.73 1.443-.73 2.572 0 .765.111 1.41.333 1.935.227.524.558.923.992 1.197.44.27.976.404 1.609.404Z" fill="#1A2873"/></svg>
